src/lib/packages/icons/src/assets/filled/messages-text.svg

<svg width="24" height="24" viewBox="0 0 24 24" fill="none" xmlns="http://www.w3.org/2000/svg">
<path d="M17 12.333V5.33301C17 3.77801 16.222 3 14.667 3H5.33398C3.77898 3 3.00098 3.77801 3.00098 5.33301V17L5.33398 14.667H14.667C16.222 14.667 17 13.889 17 12.333ZM10.7771 11.139H6.88794C6.47394 11.139 6.13794 10.803 6.13794 10.389C6.13794 9.97504 6.47394 9.63904 6.88794 9.63904H10.7771C11.1911 9.63904 11.5271 9.97504 11.5271 10.389C11.5271 10.803 11.1911 11.139 10.7771 11.139ZM13.1111 8.02795H6.88794C6.47394 8.02795 6.13794 7.69195 6.13794 7.27795C6.13794 6.86395 6.47394 6.52795 6.88794 6.52795H13.1111C13.5251 6.52795 13.8611 6.86395 13.8611 7.27795C13.8611 7.69195 13.5251 8.02795 13.1111 8.02795ZM21 11V21L19 19H11C9.67 19 9 18.33 9 17C9 17 9 16.72 9 16.479C9 16.266 9.16093 16.17 9.30493 16.17C9.40493 16.17 14.6699 16.17 14.6699 16.17C17.0699 16.17 18.5 14.73 18.5 12.33C18.5 12.33 18.5 9.53305 18.5 9.30005C18.5 9.06705 18.7031 9 18.7981 9C18.8931 9 19 9 19 9C20.33 9 21 9.67 21 11Z" fill="currentColor"/>
</svg>

<svg xmlns="http://www.w3.org/2000/svg" width="24" height="24" fill="none"><path fill="currentColor" d="M17 12.333v-7C17 3.778 16.222 3 14.667 3H5.334c-1.555 0-2.333.778-2.333 2.333V17l2.333-2.333h9.333c1.555 0 2.333-.778 2.333-2.334Zm-6.223-1.194h-3.89a.75.75 0 0 1 0-1.5h3.89a.75.75 0 0 1 0 1.5Zm2.334-3.111H6.888a.75.75 0 0 1 0-1.5h6.223a.75.75 0 0 1 0 1.5ZM21 11v10l-2-2h-8c-1.33 0-2-.67-2-2v-.521c0-.213.16-.309.305-.309h5.365c2.4 0 3.83-1.44 3.83-3.84V9.3c0-.233.203-.3.298-.3H19c1.33 0 2 .67 2 2Z"/></svg>
